packages/core/assets/Icons/chart_bar.svg

<svg viewBox="0 0 20 20" fill="none" xmlns="http://www.w3.org/2000/svg">
<path d="M14.1668 16.6666C13.9307 16.6666 13.7328 16.5868 13.5731 16.4271C13.4134 16.2673 13.3335 16.0694 13.3335 15.8333V11.6666C13.3335 11.4305 13.4134 11.2326 13.5731 11.0729C13.7328 10.9132 13.9307 10.8333 14.1668 10.8333H15.8335C16.0696 10.8333 16.2675 10.9132 16.4272 11.0729C16.587 11.2326 16.6668 11.4305 16.6668 11.6666V15.8333C16.6668 16.0694 16.587 16.2673 16.4272 16.4271C16.2675 16.5868 16.0696 16.6666 15.8335 16.6666H14.1668ZM9.16683 16.6666C8.93072 16.6666 8.7328 16.5868 8.57308 16.4271C8.41336 16.2673 8.3335 16.0694 8.3335 15.8333V4.16665C8.3335 3.93054 8.41336 3.73262 8.57308 3.5729C8.7328 3.41317 8.93072 3.33331 9.16683 3.33331H10.8335C11.0696 3.33331 11.2675 3.41317 11.4272 3.5729C11.587 3.73262 11.6668 3.93054 11.6668 4.16665V15.8333C11.6668 16.0694 11.587 16.2673 11.4272 16.4271C11.2675 16.5868 11.0696 16.6666 10.8335 16.6666H9.16683ZM4.16683 16.6666C3.93072 16.6666 3.7328 16.5868 3.57308 16.4271C3.41336 16.2673 3.3335 16.0694 3.3335 15.8333V8.33331C3.3335 8.0972 3.41336 7.89929 3.57308 7.73956C3.7328 7.57984 3.93072 7.49998 4.16683 7.49998H5.8335C6.06961 7.49998 6.26752 7.57984 6.42725 7.73956C6.58697 7.89929 6.66683 8.0972 6.66683 8.33331V15.8333C6.66683 16.0694 6.58697 16.2673 6.42725 16.4271C6.26752 16.5868 6.06961 16.6666 5.8335 16.6666H4.16683Z" fill="currentColor"/>
</svg>

<svg xmlns="http://www.w3.org/2000/svg" width="20" height="20" fill="none" viewBox="0 0 20 20">
  <path fill="#201F1F" d="M14.167 16.667a.806.806 0 0 1-.594-.24.807.807 0 0 1-.24-.594v-4.166c0-.236.08-.434.24-.594.16-.16.358-.24.594-.24h1.667c.236 0 .433.08.593.24.16.16.24.357.24.594v4.166c0 .236-.08.434-.24.594a.806.806 0 0 1-.593.24h-1.667Zm-5 0a.806.806 0 0 1-.594-.24.807.807 0 0 1-.24-.594V4.167c0-.236.08-.434.24-.594.16-.16.358-.24.594-.24h1.667c.236 0 .434.08.593.24.16.16.24.358.24.594v11.666c0 .236-.08.434-.24.594a.806.806 0 0 1-.593.24H9.167Zm-5 0a.806.806 0 0 1-.594-.24.807.807 0 0 1-.24-.594v-7.5c0-.236.08-.434.24-.593.16-.16.358-.24.594-.24h1.667c.236 0 .434.08.593.24.16.16.24.357.24.593v7.5c0 .236-.08.434-.24.594a.806.806 0 0 1-.593.24H4.167Z"/>
</svg>
